X:1
T:Title
%%score { 1 | ( 2 3 4 ) }
L:1/8
Q:1/4=100
M:4/4
K:Bb
V:1 treble nm="Grand Piano"
V:2 bass 
V:3 bass 
V:4 bass 
V:1
 [DF]>[EG] [DF]>[_D=E] [=DF]2 [Fd]2 | [Ec] [DB]3- [DB]2 z2 | G>^F G>[GB] [=FA]2 [EG]2 | [DF]6 z2 | %4
w: Thoro~Harris * * * * *||||
 E>F E>D E2 DC | D>E [B,DF]4 z2 | [G,C=E][G,CE][G,CE][G,EG] [EB]2 [B,CE]2 | [A,CF]6 z2 | %8
w: ||||
 [CE]3 [EF] [Ed]>c [Ec]2 | D3 [DF] [Dc]>B [DB]2 | [GB][GB][FA][EG] [DF]2 [CE]2 | [B,D]>G [DF]4 z2 | %12
w: ||||
 [CE]3 [EF] [Ed]>c [Ec]2 | D3 [DF] [Fc]>B [FB]2 | [EG][EG][Ge][EG] [Ed]2 [Ec]2 | [DB]6 z2 |] %16
w: ||||
V:2
 [B,,B,]>[B,,B,] [B,,B,]>[B,,B,] [B,,B,]2 [B,,B,]2 | [B,,F,] [B,,F,]3- [B,,F,]2 z2 | %2
 [E,B,E]>[E,B,D] [E,B,E]>[E,B,] [E,B,]2 [E,B,]2 | [B,,B,]6 z2 | %4
 [F,A,C]>[F,A,D] [F,A,C]>[F,_A,=B,] [F,=A,C]2 _B,A, | B,>C B,,4 z2 | C,C,C,C, [C,G,]2 C,2 | %7
 F,6 z2 | A,,C,F,C, .F,,>E F,C, | z F,B,F, z z/ D/ B,F, | z G,B,E, F,B, z A, | %11
 z z/ E/ B,F, z F,B,F, | C,F,A,F, .A,,>E A,F, | B,,F,B,F, .D,>[K:treble]F B,[K:bass]F, | %14
 z B, z B, [F,,A,]4 | [B,,B,]6 z2 |] %16
V:3
 x8 | x8 | x8 | x8 | z4 z2 F,2 | [B,,F,]2 z2 z4 | x8 | x8 | z4 z C, z2 | z4 z F, z2 | E,4 z2 F,2 | %11
 z F, z2 D,4 | z4 z F, z2 | z4 z F,[K:treble] z2[K:bass] | E,2 C,2 z4 | x8 |] %16
V:4
 x8 | x8 | x8 | x8 | x8 | x8 | x8 | x8 | x8 | B,,4 B,,4 | x8 | B,,4 z4 | x8 | %13
 x11/2[K:treble] x3/2[K:bass] x | x8 | x8 |] %16

